X: 3425
M: 3/4
L: 1/8
K: C
ee |\
(e2G2)ee | (e2G2)ee | e2d2c2 | d4gg |\
(g2d2)gg | (g2d2)gg | a2(g2^f2) | g4ee |\
(e2G2)ee | (e2G2)fe | e2d2c2 | d4ed |\
(c2G2)c'c' | c'2b2a2 | g6 |[1 c6 :|[2 a2g2^f2 ||
|:\
g6 | (g4c'2) | c'6 | b6 |\
g6 | (g4e'2) | e'6 | (d'3c'ba) |\
agb2b2 | agc'2c'2 | agb2b2 |[1 c'4z2 :|[2 c'4 |]


